archive-cancel.svg

<svg fill="currentColor" viewBox="0 0 24 24"><path d="M18.5 12c.5 0 1 .07 1.5.18V8H4v13h8.5a6.5 6.5 0 0 1 6-9M9 13v-1.5c0-.28.22-.5.5-.5h5c.28 0 .5.22.5.5V13zm12-6H3V3h18zm-2.5 7C16 14 14 16 14 18.5s2 4.5 4.5 4.5 4.5-2 4.5-4.5-2-4.5-4.5-4.5m0 7.5c-1.66 0-3-1.34-3-3 0-.56.15-1.08.42-1.5L20 21.08c-.42.27-.94.42-1.5.42m2.58-1.5L17 15.92c.42-.27.94-.42 1.5-.42 1.66 0 3 1.34 3 3 0 .56-.15 1.08-.42 1.5"/></svg>

<svg  viewBox="0 0 24 24" fill="currentColor"><path  d="M18.5 12C19 12 19.5 12.07 20 12.18V8H4V21H12.5C12.18 20.23 12 19.39 12 18.5C12 14.91 14.91 12 18.5 12M9 13V11.5C9 11.22 9.22 11 9.5 11H14.5C14.78 11 15 11.22 15 11.5V13H9M21 7H3V3H21V7M18.5 14C16 14 14 16 14 18.5S16 23 18.5 23 23 21 23 18.5 21 14 18.5 14M18.5 21.5C16.84 21.5 15.5 20.16 15.5 18.5C15.5 17.94 15.65 17.42 15.92 17L20 21.08C19.58 21.35 19.06 21.5 18.5 21.5M21.08 20L17 15.92C17.42 15.65 17.94 15.5 18.5 15.5C20.16 15.5 21.5 16.84 21.5 18.5C21.5 19.06 21.35 19.58 21.08 20Z"/></svg>
